X:14
T:Flippen
R:three-two hornpipe
M:3/2
L:1/8
K:Ador
|: edcB AEAB cdec | A^cec Adfd e4 | e3dc2c2g4 |
f2fg a2af g2ee | edcB AEAB cdec | A^cec Adfd e4 |
ecAE CEB,E A,EAc |1 B2A^GA4z4 :|2 B2A^G A4 z2ef |: g2g2 f2f2 e2e2 |
^c2c2 B2B2 A2A2 | E^CA,C ECA,C D2D2 | G,4 agfg b2b2 | aged e4 zdef |
g2g2 f2f2 e2e2 | ^c2c2 B2B2 A2A2 | E^CA,C ECA,C D2D2 |
G,4 agfe ed^cB |1 ^c2A2 a4 zdef :|2 ^c2A2 a8 |]
